img/empower-card-img-03.svg

<svg width="48" height="38" viewBox="0 0 48 38" fill="none" xmlns="http://www.w3.org/2000/svg">
<g clip-path="url(#clip0_1_415)">
<path d="M29.642 8.62415H41.6398V12.0695H29.642V8.62415Z" fill="#00A0C1"/>
<path d="M29.642 17.2375H41.6398V20.6828H29.642V17.2375Z" fill="#00A0C1"/>
<path d="M29.642 25.8506H41.6398V29.296H29.642V25.8506Z" fill="#00A0C1"/>
<path d="M45.0679 0.0111084H3.93235C3.02348 0.0120205 2.15209 0.375302 1.50942 1.02123C0.866752 1.66715 0.505302 2.54295 0.504395 3.45643V34.4643C0.505302 35.3778 0.866752 36.2536 1.50942 36.8995C2.15209 37.5454 3.02348 37.9087 3.93235 37.9096H45.0679C45.9766 37.9082 46.8477 37.5448 47.4903 36.899C48.1329 36.2532 48.4945 35.3776 48.4958 34.4643V3.45643C48.4949 2.54295 48.1335 1.66715 47.4908 1.02123C46.8481 0.375302 45.9767 0.0120205 45.0679 0.0111084ZM3.93235 3.45643H22.7861V34.4643H3.93235V3.45643ZM26.2141 34.4643V3.45643H45.0679L45.0713 34.4643H26.2141Z" fill="#00A0C1"/>
</g>
<defs>
<clipPath id="clip0_1_415">
<rect width="48" height="37.92" fill="white" transform="translate(0.5)"/>
</clipPath>
</defs>
</svg>

<svg width="48" height="38" fill="none" xmlns="http://www.w3.org/2000/svg"><g clip-path="url(#a)" fill="#00A0C1"><path d="M29.642 8.624H41.64v3.445H29.642V8.624ZM29.642 17.238H41.64v3.445H29.642v-3.445ZM29.642 25.85H41.64v3.446H29.642v-3.445Z"/><path d="M45.068.011H3.932c-.909.001-1.78.364-2.423 1.01A3.458 3.458 0 0 0 .504 3.456v31.008c.001.914.363 1.79 1.005 2.436a3.423 3.423 0 0 0 2.423 1.01h41.136a3.425 3.425 0 0 0 2.422-1.011 3.459 3.459 0 0 0 1.006-2.435V3.456c-.001-.913-.363-1.789-1.005-2.435a3.423 3.423 0 0 0-2.423-1.01ZM3.932 3.456h18.854v31.008H3.932V3.456Zm22.282 31.008V3.456h18.854l.003 31.008H26.214Z"/></g><defs><clipPath id="a"><path fill="#fff" transform="translate(.5)" d="M0 0h48v37.92H0z"/></clipPath></defs></svg>
